PortableApps/LibreOfficePortable/App/libreoffice/help/media/icon-themes/cmd/lc_auditingfillmode.svg

<svg viewBox="0 0 24 24" xmlns="http://www.w3.org/2000/svg"><path d="m21 1.75-5.755859.3339844 1.03125 1.7324218-10.7656254 6.0253907c-.2146978-.1383018-.2111789-.1210558-.3398437-.1992188-.4583027-.4128771-1.0530685-.6417402-1.6699219-.6425781-1.3807119 0-2.5 1.119288-2.5 2.5s1.1192881 2.5 2.5 2.5c.7395433-.000104 1.4410901-.327636 1.9160156-.894531.037638.01905.0542.033194.09375.052734l4.5000004 2.517578c-.001887-.058874-.009766-.116469-.009766-.175781 0-.319919.032888-.632184.085938-.9375l-4.0644536-2.273438c-.060442-.01993-.083842-.032941-.1328125-.050781.02342-.07842.0429737-.157943.0585937-.238281.054788.000519.086061-.0026.1523438 0h5.1660156c.315573-.380836.682422-.715237 1.087891-1h-6.2539066c-.00787.000239-.080475-.0037-.1542969 0-.013976-.0697-.0309183-.138774-.0507813-.207031.073885-.0492.049785-.030592.1269532-.082031l10.7695316-6.0273442 1.03125 1.7324218zm-3 7.25v1.609375c.972972.500768 1.779921 1.279525 2.310547 2.234375l2.689453-1.34375zm-4.638672 7.787109c.200667.335415.474083.618589.804688.826172z" fill="#808080"/><path d="m15.5 11a4.5 4.5 0 0 0 -4.5 4.5 4.5 4.5 0 0 0 4.5 4.5 4.5 4.5 0 0 0 2.8125-.992188l3.839844 3.839844a.50005.50005 0 1 0 .707031-.707031l-3.837891-3.837891a4.5 4.5 0 0 0 .978516-2.802734 4.5 4.5 0 0 0 -4.5-4.5zm0 1a3.5 3.5 0 0 1 3.5 3.5 3.5 3.5 0 0 1 -3.5 3.5 3.5 3.5 0 0 1 -3.5-3.5 3.5 3.5 0 0 1 3.5-3.5z" fill="#4d82b8"/><path d="m15.5 12a3.5 3.5 0 0 0 -3.5 3.5 3.5 3.5 0 0 0 3.5 3.5 3.5 3.5 0 0 0 3.5-3.5 3.5 3.5 0 0 0 -3.5-3.5z" fill="#fff"/></svg>

<svg viewBox="0 0 24 24" xmlns="http://www.w3.org/2000/svg">
  <path
     style="fill:#808080"
     d="M 21 1.75 L 15.244141 2.0839844 L 16.275391 3.8164062 L 5.5097656 9.8417969 C 5.2950678 9.7034951 5.2985867 9.7207411 5.1699219 9.6425781 C 4.7116192 9.229701 4.1168534 9.0008379 3.5 9 C 2.1192881 9 1 10.119288 1 11.5 C 1 12.880712 2.1192881 14 3.5 14 C 4.2395433 13.999896 4.9410901 13.672364 5.4160156 13.105469 C 5.4536536 13.124519 5.4702156 13.138663 5.5097656 13.158203 L 10.009766 15.675781 C 10.007879 15.616907 10 15.559312 10 15.5 C 10 15.180081 10.032888 14.867816 10.085938 14.5625 L 6.0214844 12.289062 C 5.9610424 12.269132 5.9376424 12.256121 5.8886719 12.238281 C 5.9120919 12.159861 5.9316456 12.080338 5.9472656 12 C 6.0020536 12.000519 6.0333266 11.9974 6.0996094 12 L 11.265625 12 C 11.581198 11.619164 11.948047 11.284763 12.353516 11 L 6.0996094 11 C 6.0917394 11.000239 6.0191344 10.9963 5.9453125 11 C 5.9313365 10.9303 5.9143942 10.861226 5.8945312 10.792969 C 5.9684162 10.743769 5.9443162 10.762377 6.0214844 10.710938 L 16.791016 4.6835938 L 17.822266 6.4160156 L 21 1.75 z M 18 9 L 18 10.609375 C 18.972972 11.110143 19.779921 11.8889 20.310547 12.84375 L 23 11.5 L 18 9 z M 13.361328 16.787109 C 13.561995 17.122524 13.835411 17.405698 14.166016 17.613281 L 13.361328 16.787109 z "
     />
  <path
     style="fill:#4d82b8"
     d="m 15.5,11 a 4.5,4.5 0 0 0 -4.5,4.5 4.5,4.5 0 0 0 4.5,4.5 4.5,4.5 0 0 0 2.8125,-0.992188 l 3.839844,3.839844 a 0.50005,0.50005 0 1 0 0.707031,-0.707031 L 19.021484,18.302734 A 4.5,4.5 0 0 0 20,15.5 4.5,4.5 0 0 0 15.5,11 Z m 0,1 A 3.5,3.5 0 0 1 19,15.5 3.5,3.5 0 0 1 15.5,19 3.5,3.5 0 0 1 12,15.5 3.5,3.5 0 0 1 15.5,12 Z"
     />
  <path
     style="fill:#ffffff"
     d="M 15.5 12 A 3.5 3.5 0 0 0 12 15.5 A 3.5 3.5 0 0 0 15.5 19 A 3.5 3.5 0 0 0 19 15.5 A 3.5 3.5 0 0 0 15.5 12 z "
     />
</svg>
